teeny/solid/key.svg

<svg width="15" height="15" viewBox="0 0 15 15" fill="none" xmlns="http://www.w3.org/2000/svg">
<path fill-rule="evenodd" clip-rule="evenodd" d="M7 4C7 1.79086 8.79086 0 11 0C13.2091 0 15 1.79086 15 4C15 6.20914 13.2091 8 11 8C10.0756 8 9.22452 7.68646 8.54718 7.15993L5.20711 10.5L6.85355 12.1464L6.14645 12.8536L4.5 11.2071L3.20711 12.5L4.85355 14.1464L4.14645 14.8536L2.5 13.2071L0.853553 14.8536L0.146447 14.1464L7.84007 6.45282C7.31354 5.77548 7 4.92436 7 4ZM11 1C9.34315 1 8 2.34315 8 4C8 5.65685 9.34315 7 11 7C12.6569 7 14 5.65685 14 4C14 2.34315 12.6569 1 11 1Z" fill="black"/>
</svg>

<svg viewBox="0 0 15 15" xmlns="http://www.w3.org/2000/svg"><path fill-rule="evenodd" d="M7 4c0-2.21 1.79-4 4-4 2.2 0 4 1.79 4 4 0 2.2-1.8 4-4 4 -.93 0-1.78-.32-2.46-.85l-3.35 3.34 1.64 1.64 -.71.7 -1.65-1.65 -1.3 1.29 1.64 1.64 -.71.7 -1.65-1.65L.8 14.8l-.71-.71 7.69-7.7c-.53-.68-.85-1.53-.85-2.46Zm4-3C9.34 1 8 2.34 8 4c0 1.65 1.34 3 3 3 1.65 0 3-1.35 3-3 0-1.66-1.35-3-3-3Z"/></svg>
